X: 16
T: the Rakes of Mallow  [G]
%T: the Jolly Sailor
N: Called "Sandy Lent the Man His Mill" in some old books
O: 1733
Z: John Chambers <jc:trillian.mit.edu>
B: Walsh "Caledonian Country Dances" 1733, p.34
B: Burke Thumoth collection (as “Rakes of Marlow”), 1745
M: C
L: 1/4
K: G
|:\
"G"GB GB | GB c/B/A/G/ | "D7"FA FA | FA d/c/B/A/ ||\
"G"GB GB | GB d2 |  "D7"c/B/A/G/ F/G/A/c/ | "G"BG G2 :|
|:\
"G"gf/e/ dc | Bc "(D7)"d2 | "G"gf/e/ dc | B[gd] "D7"A2 ||\
"G"gf/e/ dc | BG "C"c2 | "D7"c/B/A/G/ F/G/A/c/ | "G"BG G2 :|

%%sep 2 1 500

